!!!COM:	Martini, Johannes
!!!CDT:	~1440///-~1497//
!!!OTL:	De profundis clamavi
!!!AGN:	Motet
!!!SCT:	Mar2020
!!!SCA:	Mar2020
!!!voices:	2
**kern	**kern
*staff2	*staff1
*Ivox	*Ivox
*I"Tenor	*I"Superius
*I'T	*I'S
*>[A,B,C,D,E,F,G,H,I,J]	*>[A,B,C,D,E,F,G,H,I,J]
*>A	*>A
*clefGv2	*clefG2
*k[]	*k[]
*M2/1	*M2/1
*met(C)	*met(C)
=1-	=1-
!!LO:TX:Z=8:t=Choir 1
!!section: Domine exaudi
!!!OMD: Domine exaudi
2A/	2a/
2A/	2a/
2c\	2a/
2c\	2a/
=2	=2
1c	1a
1c	1a
=3	=3
2B\	2g/
2A/	2f/
1B	1g
=4	=4
0Al	0al
=5||	=5||
*>B	*>B
!!section: Fiant aures
!!!OMD: Fiant aures
!!LO:TX:Z=8:t=Choir 2
2A/	2a/
2A/	2a/
2c\	2a/
2c\	2a/
=6	=6
1c	1a
1c	1a
=7	=7
2c\	2a/
2c\	2a/
1c	1a
=8	=8
1A	1a
1r	1r
=9	=9
2c\	2a/
2c\	2a/
2c\	2a/
[2c\	[2a/
=10	=10
2c\]	2a/]
2c\	2a/
2c\	2a/
2c\	2a/
=11	=11
2B\	2g/
2A/	2f/
1B	1g
=12	=12
1Al	1al
1r	1r
=13||	=13||
*>C	*>C
!!section: Si iniquitates
!!!OMD: Si iniquitates
!!LO:TX:Z=8:t=Choir 1
1A	1a
2c\	2a/
2c\	2a/
=14	=14
2c\	2a/
2c\	2a/
1c	1a
=15	=15
1c	1a
2c\	2a/
2c\	2a/
=16	=16
2c\	2a/
2c\	2a/
2c\	2a/
2c\	2a/
=17	=17
1A	1a
1r	1r
=18	=18
2c\	2a/
2c\	2a/
2c\	2a/
2c\	2a/
=19	=19
2B\	2g/
2A/	2f/
1B	1g
=20	=20
0Al	0al
=21||	=21||
*>D	*>D
!!section: Quia apud te
!!!OMD: Quia apud te
!!LO:TX:Z=8:t=Choir 2
2A/	2a/
2A/	2a/
2c\	2a/
2c\	2a/
=22	=22
1c	1a
1c	1a
=23	=23
2B\	2g/
2c\	2a/
2d\	2b\
[2e\	[2cc\
=24	=24
4e\]	4cc\]
4d\	4b\
2B\	1b
1c	.
.	2a/
=25	=25
1B	1b
1r	1r
=26	=26
1c	1a
2c\	2a/
2c\	2a/
=27	=27
2c\	2a/
2c\	2a/
1c	1a
=28	=28
1A	1a
2B\	2g/
[2c\	[2a/
=29	=29
2c\]	2a/]
4B\	2g/
4c\	.
2G/	2e/
[2A/	[2f/
=30	=30
2A/]	2f/]
2G/	1e
1F	.
.	2d/
=31	=31
2.G/	2.e/
4A/	4f/
2B\	2g/
2A/	[2a/
=32	=32
1B	2a/]
.	2g#i/
1Al	1al
=33||	=33||
*>E	*>E
!!section: Sustinuit
!!!OMD: Sustinuit
!!LO:TX:Z=8:t=Choir 1
1A	1a
2c\	2a/
2c\	2a/
=34	=34
1c	1a
2c\	2a/
2c\	2a/
=35	=35
2c\	2a/
2c\	2a/
1c	1a
=36	=36
1e	2cc\
.	1b
2d\	.
2c\	[2a/
=37	=37
1B	2a/]
.	2g#i/
1A	1a
=38	=38
1r	1r
2c\	2a/
2c\	2a/
=39	=39
2c\	2a/
2c\	2a/
2c\	2a/
2c\	2a/
=40	=40
1c	1a
2B\	2g/
2A/	2f/
=41	=41
2B\	2g/
2B\	2g/
1Al	1al
=42||	=42||
*>F	*>F
!!LO:TX:Z=8:t=Choir 2
!!section: A custodia
!!!OMD: A custodia
2A/	2a/
2A/	2a/
2c\	2a/
2c\	2a/
=43	=43
1c	1a
2c\	2a/
2c\	2a/
=44	=44
1c	1a
1c	1a
=45	=45
1d	1b
1e	2cc\
.	[2b\
=46	=46
2d\	2b\]
2c\	1a
1B	.
.	2g#i/
=47	=47
1A	1a
1r	1r
=48	=48
2c\	2a/
2c\	2a/
2c\	2a/
2c\	2a/
=49	=49
1c	1a
1B	1g
=50	=50
2.A/	2.f/
4B\	4g/
2c\	2a/
[2d\	[2b-i\
=51	=51
2d\]	2b-\]
1c	1a
4B\	4g/
4A/	4f/
=52	=52
1B	1g
1Al	1al
=53||	=53||
*>G	*>G
!!section: Quia apud Dominum
!!!OMD: Quia apud Dominum
!!LO:TX:Z=8:t=Choir 1
2A/	2a/
2A/	2a/
2c\	2a/
2c\	2a/
=54	=54
2c\	2a/
2c\	2a/
1c	1a
=55	=55
1c	1a
2c\	2a/
2c\	2a/
=56	=56
2c\	2a/
2c\	2a/
1A	1a
=57	=57
1r	1r
1c	1a
=58	=58
2c\	2a/
2c\	2a/
1c	1a
=59	=59
1c	1a
1c	1a
=60	=60
2c\	2a/
2B\	2g/
2A/	2f/
[2d\	[2b-i\
=61	=61
2d\]	2b-\]
2c\	1a
1B-i	.
.	2g/
=62	=62
0Al	0al
=63||	=63||
*>H	*>H
!!LO:TX:Z=8:t=Choir 2
!!section: Et ipse
!!!OMD: Et ipse
1A	1a
2c\	2a/
2c\	2a/
=64	=64
2c\	2a/
2c\	2a/
1c	1a
=65	=65
2d\	2b\
2.e\	1cc
4d\	.
2B\	[2b\
=66	=66
1c	2b\]
.	2a/
1B	1b
=67	=67
1r	1r
1c	1a
=68	=68
2c\	2a/
2c\	2a/
1c	1a
=69	=69
1c	1a
2c\	2a/
2c\	2a/
=70	=70
1c	1a
2B\	2g/
2A/	2f/
=71	=71
1B	1g
1Al	1al
=72||	=72||
*>I	*>I
!!section: Gloria Patri
!!!OMD: Gloria Patri
!!LO:TX:Z=8:t=Choir 1
1A	1a
2c\	2a/
2c\	2a/
=73	=73
1c	1a
2d\	2b\
[2e\	[2cc\
=74	=74
2e\]	2cc\]
2c\	1a
1B	.
.	2g#i/
=75	=75
1A	1a
1r	1r
=76	=76
1c	1a
2c\	2a/
2c\	2a/
=77	=77
1B	1g
2A/	2f/
2B\	[2b-i\
=78	=78
2A/	4b-\]
.	4a/
2c\	1a
1B-i	.
.	2g/
=79	=79
0Al	0al
=80||	=80||
*>J	*>J
!!section: Sicut erat
!!!OMD: Sicut erat
!!LO:TX:Z=8:t=Choir 2
2A/	2a/
2A/	2a/
2c\	2a/
2c\	2a/
=81	=81
2c\	2a/
2c\	2a/
2c\	2a/
2c\	2a/
=82	=82
1c	1a
2A/	2a/
2B\	2g/
=83	=83
2c\	2a/
2.d\	2.b-i\
4c\	4a/
4B\	4g/
4A/	4f/
=84	=84
1B	1g
1A	1a
=85	=85
1r	1r
2c\	2a/
2c\	2a/
=86	=86
2c\	2a/
2c\	2a/
1c	1a
=87	=87
2c\	2a/
2B\	2g/
2A/	2f/
2G/	2g/
=88	=88
2A/	2f/
1d	1b-i
2c\	[2a/
=89	=89
1B-i	2a/]
.	2g/
1Al	1al
==	==
*-	*-
!!!RDF**kern: l=long note in original notation
!!!RDF**kern: i=editorial accidental
!!!ENC:	Chris Gage 02-10-2014
!!!END:	2014/10/05/
!!!EED:	Jesse Rodin
!!!EEV:	2014/10/17/
!!!ONB:	Translated from MusicXML and edited on 2014/10/17/ by Craig Sapp
!!muse2ps: C^@{COM}^i2I150v85,150Q16
